icon-svg/versuz-radio.svg

<svg xmlns="http://www.w3.org/2000/svg" fill="#44739e" viewBox="0 0 24 24"><path d="M12.388 7.276c1.352.031 1.7-.032 1.7-.317a3.6 3.6 0 0 0-1.162-.095c-1.383 0-1.394-.011-1.352-1.288l.032-.856 1.014.021c.813.021 1.035-.01 1.077-.126a.261.261 0 0 0 0-.222 5.8 5.8 0 0 0-1.109-.064h-1.034V3.58c0-1.151.011-1.151 1.384-1.151.887 0 1.161-.032 1.129-.138s-.464-.137-1.541-.158c-2.049-.042-1.922-.211-1.922 2.5-.004 2.738-.104 2.59 1.784 2.643m2.545 6.346a1.051 1.051 0 0 0-.042 1.2.634.634 0 0 0 .409.178c.38 0 .581-.275.581-.792 0-.359-.053-.5-.233-.623-.313-.227-.461-.216-.715.037m.433 1.14c-.4.064-.58-.464-.327-.939.253-.454.665-.117.612.506-.021.328-.073.412-.285.433M14.722 2.7c0-.274 0-.274.9-.274 1.32 0 1.742.274 1.742 1.108 0 .75-.317 1-1.341 1.1l-.644.063.813 1.109c.454.612.9 1.172.993 1.256.211.169 1.129.3 1.129.159a9.2 9.2 0 0 0-.8-1.151c-.781-1.025-.792-1.056-.549-1.151.718-.3.9-.412 1.066-.687a1.379 1.379 0 0 0-.559-1.911 3.48 3.48 0 0 0-1.743-.211H14.4l.032.391c.026.445.29.625.29.199m-4.646 5.061c0 .095.095.159.264.159h.26v1.742c0 1.943.074 2.26.623 2.724a1.955 1.955 0 0 0 3.009-.58 6.37 6.37 0 0 0 .148-2.292c-.021-1.362-.063-1.848-.158-1.89s-.137.38-.137 1.816c0 2.007-.085 2.418-.539 2.746a1.453 1.453 0 0 1-1.521-.085c-.369-.369-.475-.918-.475-2.566 0-1.489 0-1.5-.274-1.71-.345-.275-1.2-.317-1.2-.064M7.13 13.516c-.306-.158-.644-.126-.718.053-.074.211.063.349.169.169a.3.3 0 0 1 .517.127.374.374 0 0 1-.137.327c-.169.127-.169.159-.011.465.211.412.423.454.264.053-.074-.19-.063-.317.011-.391a.615.615 0 0 0-.095-.803m1.742.93c-.084.316-.116.549-.053.549s.127-.074.159-.159c.084-.221.538-.2.665.021.2.381.211.053 0-.633-.317-1.056-.391-1.035-.771.222m.412.021c-.18 0-.19-.043-.085-.4.043-.19.085-.211.148-.1.148.215.106.5-.063.5m-.95-4.805c-1-.232-1.215-.38-1.215-.876a1.45 1.45 0 0 1 .081-.528c.137-.212.749-.338 1.636-.338.623 0 .824-.032.792-.138a5.73 5.73 0 0 0-2.566-.031A1.185 1.185 0 0 0 6.3 8.9c-.074.9.359 1.288 1.752 1.605.824.19 1.056.38 1.151.929a.6.6 0 0 1-.211.644c-.253.254-.338.275-1.288.275-.908 0-1.014-.021-.993-.19.032-.317-.01-.37-.169-.233a.763.763 0 0 0-.158.486v.359H7.52a7.6 7.6 0 0 0 1.489-.1 1.41 1.41 0 0 0 1.025-1.12c.148-1.016-.359-1.587-1.7-1.893M7.035 5.121c.464 1.046.9 1.965.95 2.028.211.253.37.137.644-.475C9.168 5.438 10.5 2.26 10.5 2.186c0-.042-.084-.074-.179-.074-.148 0-.38.475-.972 1.911-.57 1.394-.813 1.869-.9 1.785a19.6 19.6 0 0 1-.866-1.88l-.76-1.763-.723-.032a2.7 2.7 0 0 0-.8.042c-.116.116.032.254.286.254.266 0 .224-.064 1.449 2.692m4.202 8.269V15h.363a.69.69 0 0 0 .5-.18 1.493 1.493 0 0 0 .042-1.182 1.24 1.24 0 0 0-.5-.169zm.613.327c.1.053.127.253.106.549-.022.391-.074.475-.264.5-.233.032-.243 0-.243-.549 0-.595.084-.701.401-.5m1.394.56c0 .57.032.718.158.718s.159-.148.159-.729c0-.686-.085-.95-.254-.781a3.08 3.08 0 0 0-.063.792m4.973-1.489-.031-.444c-.043-.528-.3-.707-.3-.211v.327h-.94c-.686 0-.971-.042-1.066-.158s.095-.507 1.1-2.122a14.85 14.85 0 0 0 1.225-2.218.322.322 0 0 0-.169-.3 18.3 18.3 0 0 0-3.136.011c-.19.19.01.243.908.243a2.52 2.52 0 0 1 1.182.148c.222.158.307-.022-1.573 3.072a4.84 4.84 0 0 0-.676 1.373c.032.2.106.211 1.753.243zm-.211 4.139a2.1 2.1 0 0 0-2.312-.422c-.243.137-.328.148-.317.053s-.18-.148-.729-.169l-.771-.032v1.33l-.264-.39a2.323 2.323 0 0 0-3.706-.116l-.2.295-.052-.528-.055-.528-.708-.031-.707-.032-.032-.581-.032-.57-1.321 1.32-1.32 1.32h1.09l.042.982c.043 1.13.243 1.573.824 1.879a2.616 2.616 0 0 0 2.175-.063l.507-.264.528.264a2.278 2.278 0 0 0 3.031-.845l.2-.316v2.629l.782-.771.781-.781.37.179a1.959 1.959 0 0 0 2.46-.8 2.384 2.384 0 0 0-.264-3.012m-8.564 1.626c-.052.655-.074.718-.327.813-.391.138-.792.011-.876-.274a4.17 4.17 0 0 1-.064-.75v-.5h1.32zm3.02.444c-.179.338-.359.433-.813.433a.818.818 0 0 1-.454-1.457.73.73 0 0 1 1.025-.022.8.8 0 0 1 .242 1.049ZM17 18.733a.8.8 0 0 1-1.383.433.82.82 0 0 1 .2-1.31.87.87 0 0 1 1.183.877"/></svg>

<?xml version="1.0" encoding="UTF-8"?>
<svg width="24px" fill="#44739e" height="24px" viewBox="0 0 24 24" version="1.1" xmlns="http://www.w3.org/2000/svg" xmlns:xlink="http://www.w3.org/1999/xlink">
            <path d="m 12.388,7.276 c 1.352,0.031 1.7,-0.032 1.7,-0.317 A 3.607,3.607 0 0 0 12.926,6.864 c -1.383,0 -1.394,-0.011 -1.352,-1.288 L 11.606,4.72 12.62,4.741 c 0.813,0.021 1.035,-0.01 1.077,-0.126 a 0.261,0.261 0 0 0 0,-0.222 5.781,5.781 0 0 0 -1.109,-0.064 H 11.554 V 3.58 c 0,-1.151 0.011,-1.151 1.384,-1.151 0.887,0 1.161,-0.032 1.129,-0.138 C 14.035,2.185 13.603,2.154 12.526,2.133 10.477,2.091 10.604,1.922 10.604,4.633 10.6,7.371 10.5,7.223 12.388,7.276 Z m 2.545,6.346 a 1.051,1.051 0 0 0 -0.042,1.2 A 0.634,0.634 0 0 0 15.3,15 c 0.38,0 0.581,-0.275 0.581,-0.792 0,-0.359 -0.053,-0.5 -0.233,-0.623 -0.313,-0.227 -0.461,-0.216 -0.715,0.037 z m 0.433,1.14 c -0.4,0.064 -0.58,-0.464 -0.327,-0.939 0.253,-0.454 0.665,-0.117 0.612,0.506 -0.021,0.328 -0.073,0.412 -0.285,0.433 z M 14.722,2.7 c 0,-0.274 0,-0.274 0.9,-0.274 1.32,0 1.742,0.274 1.742,1.108 0,0.75 -0.317,1 -1.341,1.1 l -0.644,0.063 0.813,1.109 c 0.454,0.612 0.9,1.172 0.993,1.256 0.211,0.169 1.129,0.3 1.129,0.159 A 9.228,9.228 0 0 0 17.514,6.07 C 16.733,5.045 16.722,5.014 16.965,4.919 c 0.718,-0.3 0.9,-0.412 1.066,-0.687 A 1.379,1.379 0 0 0 17.472,2.321 3.479,3.479 0 0 0 15.729,2.11 H 14.4 l 0.032,0.391 c 0.026,0.445 0.29,0.625 0.29,0.199 z m -4.646,5.061 c 0,0.095 0.095,0.159 0.264,0.159 h 0.26 v 1.742 c 0,1.943 0.074,2.26 0.623,2.724 a 1.955,1.955 0 0 0 3.009,-0.58 6.373,6.373 0 0 0 0.148,-2.292 C 14.359,8.152 14.317,7.666 14.222,7.624 14.127,7.582 14.085,8.004 14.085,9.44 c 0,2.007 -0.085,2.418 -0.539,2.746 A 1.453,1.453 0 0 1 12.025,12.101 C 11.656,11.732 11.55,11.183 11.55,9.535 c 0,-1.489 0,-1.5 -0.274,-1.71 -0.345,-0.275 -1.2,-0.317 -1.2,-0.064 z M 7.13,13.516 C 6.824,13.358 6.486,13.39 6.412,13.569 6.338,13.78 6.475,13.918 6.581,13.738 a 0.3,0.3 0 0 1 0.517,0.127 0.374,0.374 0 0 1 -0.137,0.327 C 6.792,14.319 6.792,14.351 6.95,14.657 7.161,15.069 7.373,15.111 7.214,14.71 7.14,14.52 7.151,14.393 7.225,14.319 A 0.615,0.615 0 0 0 7.13,13.516 Z m 1.742,0.93 c -0.084,0.316 -0.116,0.549 -0.053,0.549 0.063,0 0.127,-0.074 0.159,-0.159 0.084,-0.221 0.538,-0.2 0.665,0.021 0.2,0.381 0.211,0.053 0,-0.633 -0.317,-1.056 -0.391,-1.035 -0.771,0.222 z m 0.412,0.021 c -0.18,0 -0.19,-0.043 -0.085,-0.4 0.043,-0.19 0.085,-0.211 0.148,-0.1 0.148,0.215 0.106,0.5 -0.063,0.5 z M 8.334,9.662 C 7.334,9.43 7.119,9.282 7.119,8.786 A 1.445,1.445 0 0 1 7.2,8.258 C 7.337,8.046 7.949,7.92 8.836,7.92 9.459,7.92 9.66,7.888 9.628,7.782 A 5.729,5.729 0 0 0 7.062,7.751 1.185,1.185 0 0 0 6.3,8.9 c -0.074,0.9 0.359,1.288 1.752,1.605 0.824,0.19 1.056,0.38 1.151,0.929 a 0.6,0.6 0 0 1 -0.211,0.644 c -0.253,0.254 -0.338,0.275 -1.288,0.275 -0.908,0 -1.014,-0.021 -0.993,-0.19 0.032,-0.317 -0.01,-0.37 -0.169,-0.233 a 0.763,0.763 0 0 0 -0.158,0.486 v 0.359 H 7.52 a 7.612,7.612 0 0 0 1.489,-0.1 1.41,1.41 0 0 0 1.025,-1.12 C 10.182,10.539 9.675,9.968 8.334,9.662 Z M 7.035,5.121 c 0.464,1.046 0.9,1.965 0.95,2.028 C 8.196,7.402 8.355,7.286 8.629,6.674 9.168,5.438 10.5,2.26 10.5,2.186 c 0,-0.042 -0.084,-0.074 -0.179,-0.074 -0.148,0 -0.38,0.475 -0.972,1.911 -0.57,1.394 -0.813,1.869 -0.9,1.785 A 19.628,19.628 0 0 1 7.583,3.928 L 6.823,2.165 6.1,2.133 A 2.7,2.7 0 0 0 5.3,2.175 c -0.116,0.116 0.032,0.254 0.286,0.254 0.266,0 0.224,-0.064 1.449,2.692 z m 4.202,8.269 V 15 H 11.6 a 0.689,0.689 0 0 0 0.5,-0.18 1.493,1.493 0 0 0 0.042,-1.182 1.237,1.237 0 0 0 -0.5,-0.169 z m 0.613,0.327 c 0.1,0.053 0.127,0.253 0.106,0.549 -0.022,0.391 -0.074,0.475 -0.264,0.5 -0.233,0.032 -0.243,0 -0.243,-0.549 0,-0.595 0.084,-0.701 0.401,-0.5 z m 1.394,0.56 c 0,0.57 0.032,0.718 0.158,0.718 0.126,0 0.159,-0.148 0.159,-0.729 0,-0.686 -0.085,-0.95 -0.254,-0.781 a 3.083,3.083 0 0 0 -0.063,0.792 z m 4.973,-1.489 -0.031,-0.444 c -0.043,-0.528 -0.3,-0.707 -0.3,-0.211 v 0.327 h -0.94 c -0.686,0 -0.971,-0.042 -1.066,-0.158 -0.095,-0.116 0.095,-0.507 1.1,-2.122 A 14.851,14.851 0 0 0 18.205,7.962 0.322,0.322 0 0 0 18.036,7.662 18.279,18.279 0 0 0 14.9,7.673 c -0.19,0.19 0.01,0.243 0.908,0.243 a 2.523,2.523 0 0 1 1.182,0.148 c 0.222,0.158 0.307,-0.022 -1.573,3.072 a 4.842,4.842 0 0 0 -0.676,1.373 c 0.032,0.2 0.106,0.211 1.753,0.243 z m -0.211,4.139 a 2.1,2.1 0 0 0 -2.312,-0.422 c -0.243,0.137 -0.328,0.148 -0.317,0.053 0.011,-0.095 -0.18,-0.148 -0.729,-0.169 l -0.771,-0.032 v 1.33 l -0.264,-0.39 A 2.323,2.323 0 0 0 9.907,17.181 L 9.707,17.476 9.655,16.948 9.6,16.42 8.892,16.389 8.185,16.357 8.153,15.776 8.121,15.206 6.8,16.526 5.48,17.846 h 1.09 l 0.042,0.982 c 0.043,1.13 0.243,1.573 0.824,1.879 a 2.616,2.616 0 0 0 2.175,-0.063 l 0.507,-0.264 0.528,0.264 a 2.278,2.278 0 0 0 3.031,-0.845 l 0.2,-0.316 v 2.629 l 0.782,-0.771 0.781,-0.781 0.37,0.179 a 1.959,1.959 0 0 0 2.46,-0.8 2.384,2.384 0 0 0 -0.264,-3.012 z M 9.442,18.553 C 9.39,19.208 9.368,19.271 9.115,19.366 8.724,19.504 8.323,19.377 8.239,19.092 a 4.168,4.168 0 0 1 -0.064,-0.75 v -0.5 h 1.32 z m 3.02,0.444 c -0.179,0.338 -0.359,0.433 -0.813,0.433 A 0.818,0.818 0 0 1 11.195,17.973 0.73,0.73 0 0 1 12.22,17.951 0.8,0.8 0 0 1 12.462,19 Z M 17,18.733 a 0.8,0.8 0 0 1 -1.383,0.433 0.82,0.82 0 0 1 0.2,-1.31 0.87,0.87 0 0 1 1.183,0.877 z"/>

</svg>
